X:1
T:Molloy's Favourite Reel
M:4/4
L:1/8
Q:200
S:Larry Reynolds
Z:Paul g. Mulvaney  irtrad-l 2000-12-06
R:Reel
K:D
|: d2de fdAF | GFEF GABc | d2de fdAF | GBAG FDD2 :|
|  g2gf gbag | fgaf gfef | g2gf gbag | faeg fddA |
|  dfaf g2ef | dfaf gg (3fgf  | (3efe dc BAFG | ABde fed2 |]
